svgs/thin/envelope-dot.svg

<svg xmlns="http://www.w3.org/2000/svg" viewBox="0 0 576 512"><!-- Font Awesome Pro 6.0.0-alpha2 by @fontawesome - https://fontawesome.com License - https://fontawesome.com/license (Commercial License) --><path d="M527.111 160C523.277 160 519.557 161.305 516.562 163.701L311.5 327.75C298.188 338.406 277.812 338.406 264.5 327.75L48 154.551V128C48 101.49 69.49 80 96 80H408C412.418 80 416 76.418 416 72S412.418 64 408 64H96C60.654 64 32 92.652 32 128V384C32 419.346 60.654 448 96 448H480C515.346 448 544 419.346 544 384V176.889C544 167.561 536.439 160 527.111 160ZM528 384C528 410.467 506.467 432 480 432H96C69.533 432 48 410.467 48 384V175.051L254.5 340.25C264 347.828 275.875 352 288 352S312 347.828 321.5 340.25L528 175.051V384ZM512 0C476.654 0 448 28.654 448 64S476.654 128 512 128S576 99.346 576 64S547.346 0 512 0ZM512 112C485.533 112 464 90.467 464 64S485.533 16 512 16S560 37.533 560 64S538.467 112 512 112Z"/></svg>

<svg xmlns="http://www.w3.org/2000/svg" viewBox="0 0 576 512"><!--! Font Awesome Pro 6.0.0-alpha3 by @fontawesome - https://fontawesome.com License - https://fontawesome.com/license (Commercial License) --><path d="M527.1 160c-3.834 0-7.555 1.305-10.55 3.701l-205.1 164c-13.31 10.66-33.69 10.66-47 0L48 154.6V128c0-26.51 21.49-48 48-48h312C412.4 80 416 76.42 416 72S412.4 64 408 64H96C60.65 64 32 92.65 32 128v256c0 35.35 28.65 64 64 64h384c35.35 0 64-28.65 64-64V176.9C544 167.6 536.4 160 527.1 160zM528 384c0 26.47-21.53 48-48 48H96c-26.47 0-48-21.53-48-48V175.1l206.5 165.2C264 347.8 275.9 352 288 352s24-4.184 33.5-11.76L528 175.1V384zM512 0c-35.35 0-64 28.65-64 64s28.65 64 64 64s64-28.65 64-64S547.3 0 512 0zM512 112c-26.47 0-48-21.53-48-48s21.53-48 48-48s48 21.53 48 48S538.5 112 512 112z"/></svg>
